!!!id: bhatk3192s
!!!sthayee: Aba hun lalan
!!!vol: 3
!!!page: 192
!!!raag: bihag
!!!taal: teentaal
!!!tempo: madhyalaya
**kern
!!data: // >RN,  S  >MG  M/  P  -  N  N/  >NS'  -  [N  -/  P]  -  >PG  M/
==1
dq
4B
4c
fq
4e
4f
=
2g
4b
4b
=
bq
2cc
2bH
=
2gh
gq
4e
4f
!!data: // P  -  >PG  M/  [G  -  S]  -/  P,  P,  N,  N,/  S  S  S  -/
==2
2g
gq
4e
4f
=
2eH
2ch
=
4G
4G
4B
4B
=
4c
4c
2c
!!data: // >RS  S  S  >MG/  G  G  >MG  M/  >DP  -  >PG  M/  [G  -  S]  -/
==3
dq
4c
4c
4c
fq
4e
=
4e
4e
fq
4e
4f
=
aq
2g
gq
4e
4f
=
2eH
2ch
==
*-
